X: 109
T: Toss the Feathers no. 2
R: reel
Z: 2012 John Chambers <jc@trillian.mit.edu>
B: "100 Essential Irish Session Tunes" 1995 Dave Mallinson, ed.
M: 4/4
L: 1/8
K: D
|:\
"D"D2FD ADFD | AB=cA "C"GEcE | "D"D2FD ADFA | "G"~d2ed =cAGE |
"D"D2FD ADFD | AB=cA "C"GEDE | "Am"=cABG A3B |1 "G"d2ed "C"=cAGE :|2 "G"d2ed "C"=cAGB |]
|:\
"D"Addc d2cd | edcd edcd | "A"eaag a3g | eaag edcd |
"A7"efge afge | "D"dfed =cAAB | "C"=cABG "Am"A3B |1"G"d2ed "C"=cAGB :|2 "G"d2ed "C"=cAGE |]

%%sep 2 1 500
%%sep 1 1 500

